pause-box.svg

<svg  viewBox="0 0 24 24" fill="currentColor"><path  d="M19 3H5C3.9 3 3 3.9 3 5V19C3 20.11 3.9 21 5 21H19C20.11 21 21 20.11 21 19V5C21 3.89 20.1 3 19 3M11 16H9V8H11V16M15 16H13V8H15V16Z"/></svg>

<svg fill="currentColor" viewBox="0 0 24 24"><path d="M19 3H5c-1.1 0-2 .9-2 2v14a2 2 0 0 0 2 2h14c1.11 0 2-.89 2-2V5a2 2 0 0 0-2-2m-8 13H9V8h2zm4 0h-2V8h2z"/></svg>
